X:1
T:Piano Étude after Paganini's 16th Caprice
T:Piano Étude after Paganini's 16th Caprice
T:Op. 3, No. 6
T:Robert Schumann
C:Robert Schumann
%%score { ( 1 2 5 8 ) | ( 3 4 6 7 ) }
L:1/8
Q:1/4=120
M:3/4
K:Bb
V:1 treble nm="Piano" snm="Pno."
V:2 treble 
V:5 treble 
V:8 treble 
V:3 bass 
V:4 bass 
V:6 bass 
V:7 bass 
V:1
"^Allegro molto"!ff! (d3 [cd]dg | a>g)"^ten." !^!^f3 z | ([Ace]3 [Acd] [ce]2 | %3
 d>)[cd]"^ten." !^!d4- | d=B c4- | c[FA] B2 A2 | G !>!B2 !>!B2 (G | ^F) z z2 z2 :|!f! (=F3 Fdd | %9
 [Fd]2 c_BAG) | ([EF]3 Ecc | [Ec]2 BAGF) | a/g/z/(G/ g/f/)z/(F/ f/e/)z/(E/ | %13
 e/d/)z/(D/ F/B/d/f/!8va(! b/d'/f'/b'/)!8va)! | x _d'/4 z/4 x/ x x/ d'/4 z/4 x2 | %15
 x x/ _g/4 z/4 x =g/4 z/4 x/ x2 | x x/ _c/4 z/4 x =c/4 z/4 x/ x2 | %17
 x z/!8va(! _g'/4 z/4 x =g'/4 z/4 x/ x2 | x x/ _c'/4 z/4 x =c'/4 z/4 x/ x2!8va)! | %19
 x =e/4 z/4 x/ x2 x2 | (B,/4 z/4 x/ x x A/4 z/4 x/ B/F/D/B,/ | A,/c/A/c/ F/c/E/c/ x/ .c/ x/ .c/) | %22
 (C/E/G/c/ d/e/=B/d/ c/A/E/C/ | D/d/!^!_B/d/ !^!F/d/!^!D/d/ F/d/B/d/) | %24
 (B/e/d/e/) (B/d/^c/d/) (B/c/=c/^c/) | B/d/^c/d/ _G/=c/=B/c/ F/_B/A/B/ | %26
!p!"^smorzando" (E/G/)(G/B/) (B/e/)(e/g/) (g/b/)(b/e'/) | %27
 (E/_A/)(A/c/) (c/e/)(e/_a/) (a/c'/)(c'/e'/) | (E/=A/)(A/c/) (c/e/)(e/a/) (a/c'/)(c'/e'/) | %29
 (d'/f'/!p!a/c'/ b/d'/^f/a/ g/b/"_cresc."d/=f/ | e/g/=B/d/)"_ten."(x/_b/a/_a/ g/_g/f/=e/) | %31
!f! g/f/ d z x x A | .B/ (b/a/_a/ g/^f/=f/=e/ g/^f/=f/_e/ | x2!ff! _e/4 z/4 x/ x A/^G/=G/^F/) | %34
 .G/(b/d/g/ c/e/B/d/ A/c/G/B/ | D/A/^F/d/ A/^f/d/a/ f/d'/a/^f'/) | a/c'/e/a/ d/^f/c/e/ B/d/A/c/ | %37
 G/B/G/d/ B/g/d/b/ g/d'/b/g'/ | f'/d'/=b/g/ b/g/f/d/ =B/G/F/D/ | C/E/D/F/ E/G/^F/=A/ G/B/A/c/ | %40
 B/d/"_cresc."c/e/ d/^f/e/g/ f/a/g/b/ | (a/c'/!f!b/d'/ g/b/a/c'/ =f/a/g/b/) | %42
"_dim." e/g/f/a/ d/f/e/g/ c/e/d/f/ | B/d/c/e/!<(! (A/B/=B/c/!<)!!>(! ^c/d/e/=c/!>)! | %44
 B/d/A/c/ G/B/D/G/ ^Fd-) | [G-d]<[Gd-g-] [dg]<[=A=cd=a]- [Acda]2- | a<g- g<=a- [cda]2- | %47
 [cda]<[Bdg]- [Bdg]<[cd=a]- [cda]2- | [da]/ [e^fa]3/2- [efa]<[efa]- [efa]<[cdfa] | %49
 z/ [GB-d-g-]3/2 [Bdg]<!>![GBd]- [GBd]<!>![DGB]- | %50
 [DGB]<!>![B,DG]- [B,DG]<!>![G,B,D]- [G,B,D]<[K:bass]!>![D,G,B,] | %51
 (G,2!mf! G,/!<(!A,/B,/=B,/!<)!!>(! C/^C/D/_B,/)!>)! | %52
 .G, z[K:treble]!f!"^ten." !fermata![GBdg]4 |] %53
V:2
 [DB]3 [DA][DB][Gd] | [Ad]>[Gcd] [^FAcd]3 z | E3 D E2 | [DGB]>[D^F] [D=F]2 GF | E3 GFE | D3 DED- | %6
 DEDGF=E | D x x2 x2 :| D3 D[DF][DF] | D=B E4- | C3 C[CE][CE] | CA D4 | x6 | x4!8va(! x2!8va)! | %14
 a/b/_d'/b/ g/f/=e/d'/ b/g/f/e/ | g/f/=e/_g/ f/e/=g/f/ e/f/_e/c/ | d/B/A/_c/ B/A/=c/B/ A/B/_G/E/ | %17
 =G/F/ x/!8va(! _g'/4 x/4 f'/=e'/=g'/f'/ e'/f'/_e'/c'/ | d'/b/a/_c'/ b/a/=c'/b/ a/b/_g/e/!8va)! | %19
 =g/f/=e/_g/ f/_e/c/A/ F/=E/_E/C/ | B,/D/F/B/ ^c/d/A/=c/ x2 | A,/4 z/4 x/ !^!A!^!F!^!E x2 | %22
 C/4 z/4 x/ x x =B/4 z/4 x/ x2 | D/4 z/4 z/ BFD[I:staff +1]!^!B,!^!F, | %24
[I:staff -1] z/ E3/2 z/ D3/2 z/ ^C3/2 | z/ D3/2 z/ A3/2 x/ B/ x | x6 | x6 | x6 | d'/f'/ ab ^fg d | %30
e=B c3 x | x d/B/ G/=E/_G/F/ E/F/_E/C/ | x6 | g/^f/=f/=e/ _e/d/c/B/ A/4 z/4 x/ x | x6 | x6 | x6 | %37
 x6 | x6 | C (B,/_A,/ .G,) (D/C/ .B,) x | B(A/G/ .^F) x ^f(e/d/ | .^F)G/=F/ EF/E/ DE/D/ | %42
 CD/C/ B,C/B,/ A,B,/A,/ | FE- E4 | x2 x2 ^F2 | %45
 .[B,D]/(B/A/_A/ G/^F/=F/=E/ _E/D/)[I:staff +1](D,/^F/) | %46
[I:staff -1] [Acd]<[GBd]- [GBd]<[=Acd]- A2- | A<G- G<=A- A2- | [Ac]/ [Ac]3/2- [Ac]<[Ac]- [Ac]<A | %49
 x6 | x9/2[K:bass] x3/2 | x6 | x2[K:treble] x4 |] %53
V:3
 G,,/B,,/D,/G,/ A,/B,/^F,/A,/ G,/D,/B,,/G,,/ | ^F,,/A,,/E,,/A,,/ D,,/(D/C/A,/ ^F,/D,/C,/A,,/) | %2
 ^F,,/A,,/C,/E,/ ^F,/C/A,/F,/ E,/C,/B,,/A,,/ | B,,/D,/A,,/D,/ G,,/=B,,/D,/G,/ =B,/F/D/B,/ | %4
 C/G,/E,/C,/ C,,/A,,/C,/F,/ A,/E/C/A,/ | B,/F,/D,/B,,/ B,,,/B,/A,/G,/ ^F,/C/A,/F,/ | %6
 B,/A,/G,/B,/ =F,/B,/E,/B,/ D,/B,/^C,/B,/ | (D,/A,/^F,/D/ A,/^F/D/A,/ F,/D,/C,/A,,/) :| %8
 =B,,/G,,/B,,/D,/ =F,/_A,/G,/F,/ D,/B,,/A,/G,/ | %9
 F,/E,/D,/C,/ .C,,/.E,/.D,,/.F,/ .C,,/.E,/.B,,,/.D,/ | %10
 A,,,/F,,/A,,/C,/ E,/_G,/F,/E,/ C,/A,,/G,/F,/ | E,/D,/C,/B,,/ B,,,/(D,/D,,/)(F,/ F,,/)B,/D,/F,/ | %12
 E,/B,/"_ten."E D,/B,/"_ten."D C,/F,/"_ten."C | B,,/F,/B,-"_ten.""^legatissimo" B,4- | %14
 B, [B,=E]2 E3 | z [_EA]2 F3 | z (D2 DCB,- | [F,B,] [A,C]2 [F,A,]F,,[F,A,]) | z (D2 DCB,- | %19
 B, [A,-C]2 A,2) z | F,6- | F,E,F,A,[I:staff -1]!^!C!^!A, |[I:staff +1] F,6- | F,D,F, z x2 | %24
 G,zF,z=E, z | F,z_E, z D,B,- |!ped! B,B,G,EB,G,!ped-up! |!ped! z (_A,E,EA,E,)!ped-up! | %28
!ped! z (=A,F,EA,F,!ped-up! | .B,,) (C,D,) (A,B,)[K:treble] (F |G) !^!G2 z z ([=GB-^c-] | %31
 [FBc]) z z [B_d]=c[K:bass] ^F, | B,(D .B,,)(!>![G,D] .C,)(!>![G,_E] | %33
 .^C,)(!>![G,_B,=E] .D,).[G,B,D] .D,,.[D,A,=C] | %34
 [G,,D,B,] z"^marcato"[I:staff -1] !^![^FA]!^!G!^![EF]!^!D | %35
 !^!D[I:staff +1]!^!A,!^!^F,!^!D,!^!A,,!^!^F,, | D,,[K:treble] (c"^m.s."[I:staff -1] b)ag^f | %37
 !^!g!^!d !^!B!^!G!^!D[I:staff +1][K:bass]!^!B, | !arpeggio!=B,6 | x6 | x6 | x6 | x6 | %43
[I:staff -1] G,[I:staff +1]A,/G,/ ^F,4 | [G,D][^F,E][G,D]B, D,/[I:staff -1]C/B,/A,/ | %45
[I:staff +1] x6 | G/(B,/A,/_A,/ G,/^F,/=F,/=E,/ _E,/D,/)(D,,/^F,/) | %47
 G,/(B,,/A,,/_A,,/ G,,/^F,,/=F,,/=E,,/ _E,,/D,,/)(D,/^F,/) | %48
 E,,/D,,/D,/^F,/ E,,/D,,/D,/F,/ E,,/D,,/D,/F,/ | %49
 G,,[I:staff -1]G/D/[I:staff +1] G,,[I:staff -1]D/B,/[I:staff +1] G,,B,/G,/ | %50
 G,,G,/D,/ G,,D,/B,,/ G,,B,,/G,,/ | (G,,,2 G,,,/A,,,/B,,,/=B,,,/ C,,/^C,,/D,,/_B,,,/) | %52
 .G,,, z !fermata![G,,D,B,]4 |] %53
V:4
 G,,/4 z/4 x/ x x ^F,/4 x/4 x/ x2 | ^F,,/4 z/4 x/ E,,/4 z/4 x/ D,,/4 z/4 x/ x x2 | %2
 ^F,,/4 z/4 x/ x x/ C/4 z/4 x x2 | B,,/4 z/4 x/ A,,/4 z/4 x/ x/ =B,,/4 z/4 x x2 | %4
 C/4 z/4 x/ x C,,/4 z/4 x/ x x2 | B,/4 z/4 x/ x B,,,/4 z/4 x/ x ^F,/4 z/4 x/ x | %6
 !^!B,/4 z/4 x/ !^!G,/4 z/4 x/ !^!F,/4 z/4 x/ !^!E,/4 z/4 x/ !^!D,/4 z/4 x/ !^!^C,/4 z/4 x/ | %7
 !^!D,/4 z/4 x/ x x2 x2 :| =B,,/4 z/4 x/ x F,/4 z/4 x/ x D,/4 z/4 x/ x | C, z x2 x2 | %10
 x2 E,/4 z/4 x/ x C,/4 z/4 x/ x | B,, z x2 x2 | x6 | x6 | .C, z G,4 | .F, z A,4 | %16
 .B,, z D,2 [E,_G,]2 | E,2 [C,E,]2 F,,2 | .B,, z D,2 [E,_G,]2 | x6 | D,C,B,,!^!^CDB,, | C,6 | %22
 E,D,C,!^!DEC, | B,,6- | B,, B,,2 B,,2 B,,- | B,, B,,2 C, D,2 | (_D,6 | C,6) | C,6 | %29
 B,, F,,B,, D,G,[K:treble] B, |E FE x x x | x5[K:bass] x | G,2 x4 | x6 | x6 | z x x2 x2 | %36
 x[K:treble] x5 | x5[K:bass] x | .G,,.=B,,.D,.F,.G,.=B, | x6 | x6 | x6 | x6 | x6 | D,4 D,2 | x6 | %46
 .G, x x2 x2 | .G,, x x2 x2 | x6 | x6 | x6 | x6 | x6 |] %53
V:5
 x6 | x6 | x4 A^F | x2 =B_A G2 | G G2 _BAG | F x x4 | x6 | x6 :| x6 | x6 | x6 | x6 | x6 | %13
 x4!8va(! x2!8va)! | x6 | x6 | x6 | x3/2!8va(! x9/2 | x6!8va)! | x6 | x6 | x6 | x6 | x6 | x6 | x6 | %26
 x6 | x6 | x6 | x6 | x6 | x6 | x6 | x6 | x6 | x6 | x6 | x6 | x6 | x6 | x6 | e d2 c2 B- | %42
 B A2 G2 F | x6 | x6 | x6 | x6 | x6 | x6 | x6 | x9/2[K:bass] x3/2 | x6 | x2[K:treble] x4 |] %53
V:6
 x6 | x6 | x6 | x6 | x6 | x6 | x6 | x6 :| x6 | x6 | x6 | x6 | x6 | x6 | x2 x B,C_D | x6 | x6 | x6 | %18
 x6 | x2 x z x2 | x6 | x6 | x6 | x6 | x6 | x6 | x6 | x6 | x6 | x5[K:treble] x | x6 | x5[K:bass] x | %32
 x6 | x6 | x6 | x6 | x[K:treble] x5 | x5[K:bass] x | x6 | x6 | x6 | x6 | x6 | x6 | x6 | x6 | x6 | %47
 x6 | x6 | x6 | x6 | x6 | x6 |] %53
V:7
 x6 | x6 | x6 | x6 | x6 | x6 | x6 | x6 :| x6 | x6 | x6 | x6 | x6 | x6 | x6 | x2 x C=DE | %16
 x2 x F, x2 | x6 | x2 x F, x2 | [E,F,]6 | x6 | x6 | x6 | x6 | x6 | x6 | x6 | x6 | x6 | %29
 x5[K:treble] x | x6 | x5[K:bass] x | x6 | x6 | x6 | x6 | x[K:treble] x5 | x5[K:bass] x | x6 | x6 | %40
 x6 | x6 | x6 | x6 | x6 | x6 | x6 | x6 | x6 | x6 | x6 | x6 | x6 |] %53
V:8
 x6 | x6 | x6 | x6 | x6 | x6 | x6 | x6 :| x6 | x6 | x6 | x6 | x6 | x4!8va(! x2!8va)! | x6 | x6 | %16
 x6 | x3/2!8va(! x9/2 | x6!8va)! | x6 | x6 | x6 | x6 | x6 | x6 | x2 _G2 x2 | x6 | x6 | x6 | x6 | %30
 x6 | x6 | x6 | x6 | x6 | x6 | x6 | x6 | x6 | x2 x2 G=F/E/ | D x d(c/B/ .A) x | x6 | x6 | x6 | x6 | %45
 x6 | x6 | x6 | x6 | x6 | x9/2[K:bass] x3/2 | x6 | x2[K:treble] x4 |] %53

